content/en/docs/ops/deployment/deployment-models/single-trust.svg

<svg xmlns="http://www.w3.org/2000/svg" viewBox="0 0 745.99 684.44"><defs><style>.a2f47c64-16db-4b6b-bdee-377bdc962ed7,.aef6570f-e23c-427c-8451-ddf17f85103f,.aff3d040-f017-4f6c-8df3-721ffc1fff3e,.b0d40f48-2bc1-4bc9-a245-957cb0bcfd59,.b3fd4b19-846b-4599-a8b9-9b489832478e{fill:none}.a2f47c64-16db-4b6b-bdee-377bdc962ed7,.aef6570f-e23c-427c-8451-ddf17f85103f,.b0d40f48-2bc1-4bc9-a245-957cb0bcfd59,.b3fd4b19-846b-4599-a8b9-9b489832478e{stroke-linejoin:round}.fe05dccd-09b7-4b60-8857-e55f452ca8ef{font-family:Roboto-Regular,Roboto}.a2f47c64-16db-4b6b-bdee-377bdc962ed7,.aff3d040-f017-4f6c-8df3-721ffc1fff3e{stroke-width:2px}.afe5a57b-ad06-46c1-b935-0a6b429ab05b{fill:#e6e6e6}.a0c1cb5b-aa32-41c5-98c7-0e1a31f1f21d{fill:#fff}.aef6570f-e23c-427c-8451-ddf17f85103f{stroke:#e905ee;stroke-width:3px}.fe05dccd-09b7-4b60-8857-e55f452ca8ef{font-size:18.69px}.eb50e813-8b20-4d30-a909-e025616e0fdc{letter-spacing:.01em}.a29fa498-68fb-4cac-9915-055869fd92ec{letter-spacing:0}.e4273cab-89ba-4771-9412-787f2e64fd11{fill:#757575}.a2f47c64-16db-4b6b-bdee-377bdc962ed7,.aff3d040-f017-4f6c-8df3-721ffc1fff3e{stroke:#fff}.aff3d040-f017-4f6c-8df3-721ffc1fff3e,.b0d40f48-2bc1-4bc9-a245-957cb0bcfd59,.b3fd4b19-846b-4599-a8b9-9b489832478e{stroke-linecap:round}.aff3d040-f017-4f6c-8df3-721ffc1fff3e{stroke-miterlimit:10}.b0d40f48-2bc1-4bc9-a245-957cb0bcfd59,.b3fd4b19-846b-4599-a8b9-9b489832478e{stroke:#486baf;stroke-width:4px}.b0d40f48-2bc1-4bc9-a245-957cb0bcfd59{stroke-dasharray:6 12}.b52d1e2a-221d-4d23-a8a7-6776adf075f1{fill:#486baf}.f6d62a9b-16ce-463f-af89-bf0cdb03de16{fill:#090}.b467b650-a80f-4b16-bf28-cdcf0d8712fd{fill:#e5e5e4}</style></defs><g id="bce1b5b6-b543-41a5-9bd1-12af24bf6568" data-name="single-trust"><rect x=".5" y="13.7" width="744.99" height="670.24" rx="10" stroke-linejoin="round" stroke="#466bb0" stroke-dasharray="9.98 9.98" fill="none"/><text transform="translate(.48 10.27)" font-family="Roboto-Regular,Roboto" font-size="12">Istio Mesh</text><text transform="translate(29.83 37.45)" font-size="13.79" font-family="Roboto-Regular,Roboto">Cluster</text><rect x="29.91" y="40.91" width="686.23" height="617.38" rx="10" stroke-width="2" stroke="#fbb040" stroke-linejoin="round" fill="none"/><rect class="afe5a57b-ad06-46c1-b935-0a6b429ab05b" x="433.34" y="414.87" width="263.89" height="96.13" rx="3"/><rect class="a0c1cb5b-aa32-41c5-98c7-0e1a31f1f21d" x="444.88" y="426.89" width="72.1" height="72.1" rx="3"/><path class="aef6570f-e23c-427c-8451-ddf17f85103f" d="M498.64 473.15v-20.43l-17.71-10.21-17.7 10.21v20.43l17.7 10.22 17.71-10.22z"/><rect class="a0c1cb5b-aa32-41c5-98c7-0e1a31f1f21d" x="529" y="426.89" width="156.21" height="72.1" rx="3"/><text class="fe05dccd-09b7-4b60-8857-e55f452ca8ef" transform="translate(599.31 469.4)">Se<tspan class="eb50e813-8b20-4d30-a909-e025616e0fdc" x="20.99" y="0">r</tspan><tspan class="a29fa498-68fb-4cac-9915-055869fd92ec" x="27.48" y="0">vice B</tspan></text><circle class="e4273cab-89ba-4771-9412-787f2e64fd11" cx="565.05" cy="462.94" r="24.03"/><path class="a2f47c64-16db-4b6b-bdee-377bdc962ed7" d="M556.51 454.24h17.08v17.08h-17.08z"/><path class="aff3d040-f017-4f6c-8df3-721ffc1fff3e" d="M559.67 454.24v-4.11m5.38 4.11v-4.11m5.38 4.11v-4.11m-10.76 25.61v-4.11m5.38 4.11v-4.11m5.38 4.11v-4.11m-14.08-3.32h-4.11m4.11-5.37h-4.11m4.11-5.38h-4.11m25.62 10.75h-4.11m4.11-5.37h-4.11m4.11-5.38h-4.11"/><rect class="a0c1cb5b-aa32-41c5-98c7-0e1a31f1f21d" x="561.25" y="458.98" width="7.59" height="7.59" rx="2"/><rect class="afe5a57b-ad06-46c1-b935-0a6b429ab05b" x="48.81" y="414.87" width="263.89" height="96.13" rx="3"/><rect class="a0c1cb5b-aa32-41c5-98c7-0e1a31f1f21d" x="60.36" y="426.89" width="156.21" height="72.1" rx="3"/><text class="fe05dccd-09b7-4b60-8857-e55f452ca8ef" transform="translate(130.38 469.4)">Se<tspan class="eb50e813-8b20-4d30-a909-e025616e0fdc" x="20.99" y="0">r</tspan><tspan class="a29fa498-68fb-4cac-9915-055869fd92ec" x="27.48" y="0">vice A</tspan></text><circle class="e4273cab-89ba-4771-9412-787f2e64fd11" cx="96.4" cy="462.94" r="24.03"/><path class="a2f47c64-16db-4b6b-bdee-377bdc962ed7" d="M87.87 454.24h17.08v17.08H87.87z"/><path class="aff3d040-f017-4f6c-8df3-721ffc1fff3e" d="M91.03 454.24v-4.11m5.37 4.11v-4.11m5.38 4.11v-4.11m-10.75 25.61v-4.11m5.37 4.11v-4.11m5.38 4.11v-4.11m-14.07-3.32H83.6m4.11-5.37H83.6m4.11-5.38H83.6m25.61 10.75h-4.11m4.11-5.37h-4.11m4.11-5.38h-4.11"/><rect class="a0c1cb5b-aa32-41c5-98c7-0e1a31f1f21d" x="92.61" y="458.98" width="7.59" height="7.59" rx="2"/><rect class="a0c1cb5b-aa32-41c5-98c7-0e1a31f1f21d" x="228.59" y="426.89" width="72.1" height="72.1" rx="3"/><path class="aef6570f-e23c-427c-8451-ddf17f85103f" d="M282.34 473.15v-20.43l-17.7-10.21-17.71 10.21v20.43l17.71 10.22 17.7-10.22z"/><path class="b0d40f48-2bc1-4bc9-a245-957cb0bcfd59" d="M372.33 367H264.64v52.71"/><path class="b52d1e2a-221d-4d23-a8a7-6776adf075f1" d="M259.65 418.25l4.99 8.64 4.98-8.64h-9.97z"/><path class="b0d40f48-2bc1-4bc9-a245-957cb0bcfd59" d="M372.79 250.84V367h107.69v52.71"/><path class="b52d1e2a-221d-4d23-a8a7-6776adf075f1" d="M475.5 418.25l4.98 8.64 4.99-8.64h-9.97z"/><path stroke="#090" stroke-width="4" stroke-miterlimit="10" fill="none" d="M307.86 463.13h129.85"/><path class="f6d62a9b-16ce-463f-af89-bf0cdb03de16" d="M309.32 468.11l-8.63-4.98 8.63-4.99v9.97zm126.93 0l8.63-4.98-8.63-4.99v9.97z"/><rect class="b467b650-a80f-4b16-bf28-cdcf0d8712fd" x="483" y="189.19" width="164.56" height="122.43" rx="3"/><rect class="a0c1cb5b-aa32-41c5-98c7-0e1a31f1f21d" x="494.76" y="247.18" width="141.05" height="56.97" rx="3"/><text class="fe05dccd-09b7-4b60-8857-e55f452ca8ef" transform="translate(522.05 269.91)">Ce<tspan x="22.07" y="0" letter-spacing=".02em">r</tspan><tspan x="28.85" y="0">tificate</tspan><tspan x="5.6" y="22.43" letter-spacing="-.01em">A</tspan><tspan x="17.7" y="22.43">uthority</tspan></text><path d="M576.51 213.53a6.69 6.69 0 016.73 6.73v2.24a2.27 2.27 0 01-2.24 2.25h-31.43a2.29 2.29 0 01-2.24-2.25v-2.24a6.69 6.69 0 016.73-6.73h4.7a2 2 0 002-2v-.07a15.3 15.3 0 00-1.62-6.31 6.68 6.68 0 01.46-6.49 6.78 6.78 0 013-2.49 6.32 6.32 0 013.89-.45 6.62 6.62 0 013.54 1.89 6.85 6.85 0 011.93 3.54 6.58 6.58 0 01-.7 4.21 12.37 12.37 0 00-1.48 5.47v.7a2 2 0 002 2zm-26.94 17.95V227H581v4.49z" fill="#466bb0"/><path class="f6d62a9b-16ce-463f-af89-bf0cdb03de16" d="M383.91 428a3.14 3.14 0 013.15 3.16v12.62a3.16 3.16 0 01-3.15 3.16h-23.14a3.16 3.16 0 01-3.16-3.16v-12.64a3.14 3.14 0 013.16-3.16h1.57v-4.73a9.72 9.72 0 011.35-5 10.14 10.14 0 013.65-3.65 10 10 0 0110 0 10.06 10.06 0 013.65 3.65 9.72 9.72 0 011.35 5V428zm-6.84 0v-4.73a4.74 4.74 0 10-9.47 0V428z"/><text transform="translate(351.47 407.19)" font-size="16.02" font-family="Roboto-Regular,Roboto">mTLS</text><rect class="b467b650-a80f-4b16-bf28-cdcf0d8712fd" x="104.09" y="203.49" width="153.32" height="93.84" rx="3"/><rect class="a0c1cb5b-aa32-41c5-98c7-0e1a31f1f21d" x="115.05" y="257.51" width="131.42" height="32.86" rx="3"/><text transform="translate(128.67 279.09)" font-size="17.42" font-family="Roboto-Regular,Roboto">Cont<tspan x="36.57" y="0" letter-spacing="-.02em">r</tspan><tspan x="42.17" y="0" letter-spacing="0">ol Plane</tspan></text><path id="a053c1a2-db21-46a6-a228-1649c9cb2037" data-name="background" class="b52d1e2a-221d-4d23-a8a7-6776adf075f1" d="M163.07 203.49h35.38v35.38h-35.38z"/><path id="e8d6e127-e11f-4f5a-81d8-a94c0b46c233" data-name="hull" class="a0c1cb5b-aa32-41c5-98c7-0e1a31f1f21d" d="M170.06 233.21h21.4l-13.38 4.01-8.02-4.01z"/><path id="e9b6a605-9d3f-42db-a687-13e72dadc651" data-name="mainsail" class="a0c1cb5b-aa32-41c5-98c7-0e1a31f1f21d" d="M170.06 231.87l8.02-1.34v-14.71l-8.02 16.05z"/><path id="a7cd7b4d-edd2-4176-bb7b-b2fc10c3ec80" data-name="headsail" class="a0c1cb5b-aa32-41c5-98c7-0e1a31f1f21d" d="M179.42 230.53l12.04 1.34-12.04-26.74v25.4z"/><path class="b3fd4b19-846b-4599-a8b9-9b489832478e" d="M257.42 250.41h3"/><path stroke-dasharray="6.21 12.43" stroke-width="4" stroke="#486baf" stroke-linecap="round" stroke-linejoin="round" fill="none" d="M272.85 250.41h198.87"/><path class="b3fd4b19-846b-4599-a8b9-9b489832478e" d="M477.93 250.41h3"/></g></svg>

<svg xmlns="http://www.w3.org/2000/svg" viewBox="0 0 745.99 684.44"><defs><style>.a2f47c64-16db-4b6b-bdee-377bdc962ed7,.aef6570f-e23c-427c-8451-ddf17f85103f,.aff3d040-f017-4f6c-8df3-721ffc1fff3e,.b0d40f48-2bc1-4bc9-a245-957cb0bcfd59,.b3fd4b19-846b-4599-a8b9-9b489832478e{fill:none}.a2f47c64-16db-4b6b-bdee-377bdc962ed7,.aef6570f-e23c-427c-8451-ddf17f85103f,.b0d40f48-2bc1-4bc9-a245-957cb0bcfd59,.b3fd4b19-846b-4599-a8b9-9b489832478e{stroke-linejoin:round}.fe05dccd-09b7-4b60-8857-e55f452ca8ef{font-family:Roboto-Regular,Roboto}.a2f47c64-16db-4b6b-bdee-377bdc962ed7,.aff3d040-f017-4f6c-8df3-721ffc1fff3e{stroke-width:2px}.afe5a57b-ad06-46c1-b935-0a6b429ab05b{fill:#e6e6e6}.a0c1cb5b-aa32-41c5-98c7-0e1a31f1f21d{fill:#fff}.aef6570f-e23c-427c-8451-ddf17f85103f{stroke:#e905ee;stroke-width:3px}.fe05dccd-09b7-4b60-8857-e55f452ca8ef{font-size:18.69px}.eb50e813-8b20-4d30-a909-e025616e0fdc{letter-spacing:.01em}.a29fa498-68fb-4cac-9915-055869fd92ec{letter-spacing:0}.e4273cab-89ba-4771-9412-787f2e64fd11{fill:#757575}.a2f47c64-16db-4b6b-bdee-377bdc962ed7,.aff3d040-f017-4f6c-8df3-721ffc1fff3e{stroke:#fff}.aff3d040-f017-4f6c-8df3-721ffc1fff3e,.b0d40f48-2bc1-4bc9-a245-957cb0bcfd59,.b3fd4b19-846b-4599-a8b9-9b489832478e{stroke-linecap:round}.aff3d040-f017-4f6c-8df3-721ffc1fff3e{stroke-miterlimit:10}.b0d40f48-2bc1-4bc9-a245-957cb0bcfd59,.b3fd4b19-846b-4599-a8b9-9b489832478e{stroke:#486baf;stroke-width:4px}.b0d40f48-2bc1-4bc9-a245-957cb0bcfd59{stroke-dasharray:6 12}.b52d1e2a-221d-4d23-a8a7-6776adf075f1{fill:#486baf}.f6d62a9b-16ce-463f-af89-bf0cdb03de16{fill:#090}.b467b650-a80f-4b16-bf28-cdcf0d8712fd{fill:#e5e5e4}</style></defs><g id="bce1b5b6-b543-41a5-9bd1-12af24bf6568" data-name="single-trust"><rect x=".5" y="13.7" width="744.99" height="670.24" rx="10" stroke-linejoin="round" stroke="#466bb0" stroke-dasharray="9.98 9.98" fill="none"/><text transform="translate(.48 10.27)" font-family="Roboto-Regular,Roboto" font-size="12">Istio Mesh</text><text transform="translate(29.83 37.45)" font-size="13.79" font-family="Roboto-Regular,Roboto">Cluster</text><rect x="29.91" y="40.91" width="686.23" height="617.38" rx="10" stroke-width="2" stroke="#fbb040" stroke-linejoin="round" fill="none"/><rect class="afe5a57b-ad06-46c1-b935-0a6b429ab05b" x="433.34" y="414.87" width="263.89" height="96.13" rx="3"/><rect class="a0c1cb5b-aa32-41c5-98c7-0e1a31f1f21d" x="444.88" y="426.89" width="72.1" height="72.1" rx="3"/><path class="aef6570f-e23c-427c-8451-ddf17f85103f" d="M498.64 473.15v-20.43l-17.71-10.21-17.7 10.21v20.43l17.7 10.22 17.71-10.22z"/><rect class="a0c1cb5b-aa32-41c5-98c7-0e1a31f1f21d" x="529" y="426.89" width="156.21" height="72.1" rx="3"/><text class="fe05dccd-09b7-4b60-8857-e55f452ca8ef" transform="translate(599.31 469.4)">Se<tspan class="eb50e813-8b20-4d30-a909-e025616e0fdc" x="20.99" y="0">r</tspan><tspan class="a29fa498-68fb-4cac-9915-055869fd92ec" x="27.48" y="0">vice B</tspan></text><circle class="e4273cab-89ba-4771-9412-787f2e64fd11" cx="565.05" cy="462.94" r="24.03"/><path class="a2f47c64-16db-4b6b-bdee-377bdc962ed7" d="M556.51 454.24h17.08v17.08h-17.08z"/><path class="aff3d040-f017-4f6c-8df3-721ffc1fff3e" d="M559.67 454.24v-4.11M565.05 454.24v-4.11M570.43 454.24v-4.11M559.67 475.74v-4.11M565.05 475.74v-4.11M570.43 475.74v-4.11M556.35 468.31h-4.11M556.35 462.94h-4.11M556.35 457.56h-4.11M577.86 468.31h-4.11M577.86 462.94h-4.11M577.86 457.56h-4.11"/><rect class="a0c1cb5b-aa32-41c5-98c7-0e1a31f1f21d" x="561.25" y="458.98" width="7.59" height="7.59" rx="2"/><rect class="afe5a57b-ad06-46c1-b935-0a6b429ab05b" x="48.81" y="414.87" width="263.89" height="96.13" rx="3"/><rect class="a0c1cb5b-aa32-41c5-98c7-0e1a31f1f21d" x="60.36" y="426.89" width="156.21" height="72.1" rx="3"/><text class="fe05dccd-09b7-4b60-8857-e55f452ca8ef" transform="translate(130.38 469.4)">Se<tspan class="eb50e813-8b20-4d30-a909-e025616e0fdc" x="20.99" y="0">r</tspan><tspan class="a29fa498-68fb-4cac-9915-055869fd92ec" x="27.48" y="0">vice A</tspan></text><circle class="e4273cab-89ba-4771-9412-787f2e64fd11" cx="96.4" cy="462.94" r="24.03"/><path class="a2f47c64-16db-4b6b-bdee-377bdc962ed7" d="M87.87 454.24h17.08v17.08H87.87z"/><path class="aff3d040-f017-4f6c-8df3-721ffc1fff3e" d="M91.03 454.24v-4.11M96.4 454.24v-4.11M101.78 454.24v-4.11M91.03 475.74v-4.11M96.4 475.74v-4.11M101.78 475.74v-4.11M87.71 468.31H83.6M87.71 462.94H83.6M87.71 457.56H83.6M109.21 468.31h-4.11M109.21 462.94h-4.11M109.21 457.56h-4.11"/><rect class="a0c1cb5b-aa32-41c5-98c7-0e1a31f1f21d" x="92.61" y="458.98" width="7.59" height="7.59" rx="2"/><rect class="a0c1cb5b-aa32-41c5-98c7-0e1a31f1f21d" x="228.59" y="426.89" width="72.1" height="72.1" rx="3"/><path class="aef6570f-e23c-427c-8451-ddf17f85103f" d="M282.34 473.15v-20.43l-17.7-10.21-17.71 10.21v20.43l17.71 10.22 17.7-10.22z"/><path class="b0d40f48-2bc1-4bc9-a245-957cb0bcfd59" d="M372.33 367H264.64v52.71"/><path class="b52d1e2a-221d-4d23-a8a7-6776adf075f1" d="M259.65 418.25l4.99 8.64 4.98-8.64h-9.97z"/><path class="b0d40f48-2bc1-4bc9-a245-957cb0bcfd59" d="M372.79 250.84V367h107.69v52.71"/><path class="b52d1e2a-221d-4d23-a8a7-6776adf075f1" d="M475.5 418.25l4.98 8.64 4.99-8.64h-9.97z"/><path stroke="#090" stroke-width="4" stroke-miterlimit="10" fill="none" d="M307.86 463.13h129.85"/><path class="f6d62a9b-16ce-463f-af89-bf0cdb03de16" d="M309.32 468.11l-8.63-4.98 8.63-4.99v9.97zM436.25 468.11l8.63-4.98-8.63-4.99v9.97z"/><rect class="b467b650-a80f-4b16-bf28-cdcf0d8712fd" x="483" y="189.19" width="164.56" height="122.43" rx="3"/><rect class="a0c1cb5b-aa32-41c5-98c7-0e1a31f1f21d" x="494.76" y="247.18" width="141.05" height="56.97" rx="3"/><text class="fe05dccd-09b7-4b60-8857-e55f452ca8ef" transform="translate(522.05 269.91)">Ce<tspan x="22.07" y="0" letter-spacing=".02em">r</tspan><tspan x="28.85" y="0">tificate</tspan><tspan x="5.6" y="22.43" letter-spacing="-.01em">A</tspan><tspan x="17.7" y="22.43">uthority</tspan></text><path d="M576.51 213.53a6.69 6.69 0 016.73 6.73v2.24a2.27 2.27 0 01-2.24 2.25h-31.43a2.29 2.29 0 01-2.24-2.25v-2.24a6.69 6.69 0 016.73-6.73h4.7a2 2 0 002-2v-.07a15.3 15.3 0 00-1.62-6.31 6.68 6.68 0 01.46-6.49 6.78 6.78 0 013-2.49 6.32 6.32 0 013.89-.45 6.62 6.62 0 013.54 1.89 6.85 6.85 0 011.93 3.54 6.58 6.58 0 01-.7 4.21 12.37 12.37 0 00-1.48 5.47v.7a2 2 0 002 2zm-26.94 17.95V227H581v4.49z" fill="#466bb0"/><path class="f6d62a9b-16ce-463f-af89-bf0cdb03de16" d="M383.91 428a3.14 3.14 0 013.15 3.16v12.62a3.16 3.16 0 01-3.15 3.16h-23.14a3.16 3.16 0 01-3.16-3.16v-12.64a3.14 3.14 0 013.16-3.16h1.57v-4.73a9.72 9.72 0 011.35-5 10.14 10.14 0 013.65-3.65 10 10 0 0110 0 10.06 10.06 0 013.65 3.65 9.72 9.72 0 011.35 5V428zm-6.84 0v-4.73a4.74 4.74 0 10-9.47 0V428z"/><text transform="translate(351.47 407.19)" font-size="16.02" font-family="Roboto-Regular,Roboto">mTLS</text><rect class="b467b650-a80f-4b16-bf28-cdcf0d8712fd" x="104.09" y="203.49" width="153.32" height="93.84" rx="3"/><rect class="a0c1cb5b-aa32-41c5-98c7-0e1a31f1f21d" x="115.05" y="257.51" width="131.42" height="32.86" rx="3"/><text transform="translate(128.67 279.09)" font-size="17.42" font-family="Roboto-Regular,Roboto">Cont<tspan x="36.57" y="0" letter-spacing="-.02em">r</tspan><tspan x="42.17" y="0" letter-spacing="0">ol Plane</tspan></text><path id="a053c1a2-db21-46a6-a228-1649c9cb2037" data-name="background" class="b52d1e2a-221d-4d23-a8a7-6776adf075f1" d="M163.07 203.49h35.38v35.38h-35.38z"/><path id="e8d6e127-e11f-4f5a-81d8-a94c0b46c233" data-name="hull" class="a0c1cb5b-aa32-41c5-98c7-0e1a31f1f21d" d="M170.06 233.21h21.4l-13.38 4.01-8.02-4.01z"/><path id="e9b6a605-9d3f-42db-a687-13e72dadc651" data-name="mainsail" class="a0c1cb5b-aa32-41c5-98c7-0e1a31f1f21d" d="M170.06 231.87l8.02-1.34v-14.71l-8.02 16.05z"/><path id="a7cd7b4d-edd2-4176-bb7b-b2fc10c3ec80" data-name="headsail" class="a0c1cb5b-aa32-41c5-98c7-0e1a31f1f21d" d="M179.42 230.53l12.04 1.34-12.04-26.74v25.4z"/><path class="b3fd4b19-846b-4599-a8b9-9b489832478e" d="M257.42 250.41h3"/><path stroke-dasharray="6.21 12.43" stroke-width="4" stroke="#486baf" stroke-linecap="round" stroke-linejoin="round" fill="none" d="M272.85 250.41h198.87"/><path class="b3fd4b19-846b-4599-a8b9-9b489832478e" d="M477.93 250.41h3"/></g></svg>
